X:1842
T:Bourree dite Aurore Sand
Z:abc transcription Simon Wascher
N:please mail errors to: simon.wascher@chello.at
M:2/4
L:1/8
K:Gm
D|G3/2A/2 Bc|d3d|d3/2g/2 ^fg|d3d|
e3/2d/2 cA|B3/2A/2 GB|A3/2G/2 AB|G3:|
|:d|d3/2c/2 Bc|d3/2c/2 Bc|d3/2c/2 de|d3/2c/2 Bc|
d3/2c/2 Bc|d3/2c/2 Bc|d3/2c/2 BA|G:|


